!!!COM: Palestrina, Giovanni Perluigi da
!!!OPR: Missa Jam Christus astra ascenderat
!!!OMD: Sanctus
!!!OTL: Pleni
**kern	**kern	**kern
*Itenor	*Icalto	*Icant
!Tenor	!Altus	!Cantus
*clefGv2	*clefG2	*clefG2
*k[b-]	*k[b-]	*k[b-]
*G:dor	*G:dor	*G:dor
*M4/2	*M4/2	*M4/2
=35	=35	=35
0r	1d	0r
.	2d	.
.	2d	.
=36	=36	=36
0r	1g	1r
.	2f#	1dd
.	[2g	.
=37	=37	=37
0r	4g]	2dd
.	4d	.
.	2f	2dd
.	1e-	1gg
=38	=38	=38
0r	2d	2ff#
.	2g	2.gg
.	2b-	.
.	.	4dd
.	[2a	2ff
=39	=39	=39
0r	4a]	1ee-
.	4g	.
.	2.cc	.
.	.	2dd
.	4b-	.
.	2b-	[2gg
=40	=40	=40
1d	1a	2gg]
.	.	4ff
.	.	4ee
2d	2r	2.ff
2d	2a	.
.	.	4ee-
=41	=41	=41
1g	2b-	4dd
.	.	4cc
.	2g	1dd
2f#	2a	.
[2g	[2b-	[2ee-
=42	=42	=42
4g]	2b-]	4ee-]
4d	.	4dd
2f	2.a	2dd
1e-	.	4cc
.	4g	4b-
.	[2g	4a
.	.	4g
=43	=43	=43
1d	2g]	1a
.	2f#	.
1G	2g	2.b-
.	2d	.
.	.	4g
=44	=44	=44
2r	2d	2a
2G	2d	1b-
2G	1g	.
2G	.	4a
.	.	4g
=45	=45	=45
1d	2.f	1a
.	4d	.
2c#	2e	2r
[2d	[2f	2a
=46	=46	=46
4d]	2f]	2a
4A	.	.
2c	2e	2a
1B-	2f	1dd
.	2g	.
=47	=47	=47
2A	4a	2cc#
.	4g	.
2.B-	4f	2.dd
.	4e	.
.	2.f	.
4F	.	4a
2A	.	2cc
.	4c	.
=48	=48	=48
1G	2d	1b-
.	2e	.
[1F	1f	[1a
=49	=49	=49
1F]	2r	1a]
.	1f	.
1r	.	1cc
.	2e	.
=50	=50	=50
0r	2d	2b-
.	2.f	2a
.	.	2.cc
.	4e	.
.	4c	.
.	4d	4b-
=51	=51	=51
0r	4e	4g
.	4f	4a
.	4g	4b-
.	4a	4cc
.	2b-	4dd
.	.	4ee
.	2a	[2ff
=52	=52	=52
1c	1g	2ff]
.	.	2ee
2B-	2r	2dd
2A	[2f	[2cc
=53	=53	=53
2.c	2f]	4cc]
.	.	4b-
.	2e	4g
4B-	.	4a
4G	2d	4b-
4A	.	4cc
4B-	[2b-	[2dd
4c	.	.
=54	=54	=54
4d	2b-]	2dd]
4e	.	.
2.f	4a	4cc
.	4g	4b-
.	2a	2cc
4e-	.	.
4d	[2b-	[2dd
4c	.	.
=55	=55	=55
2B-	4b-]	2dd]
.	4a	.
2c	1g	4cc
.	.	4b-
1d	.	1a
.	2f#	.
=56	=56	=56
2r	1g	0g
1c	.	.
.	2r	.
2B-	2g	.
=57	=57	=57
2A	2f	0r
2.c	2e	.
.	2.g	.
4B-	.	.
4G	.	.
4A	4f	.
=58	=58	=58
4B-	4d	1r
4c	4e	.
4d	4f	.
4e	4g	.
2f	2a	1cc
2c	[2f	.
=59	=59	=59
2.d	4f]	2b-
.	4f	.
.	1f	2a
8c	.	.
8B-	.	.
2A	.	2.cc
[2c	4e	.
.	4d	4b-
=60	=60	=60
4c]	2e	4g
4c	.	4a
2G	2g	4b-
.	.	4cc
2.B-	2f	4dd
.	.	4ee
.	4d	[2ff
4c	4e	.
=61	=61	=61
4d	4f	4ff]
4e	4g	4ee
2.f	2.a	2dd
.	.	2cc
4e-	4g	.
4d	4f	[2dd
4c	4e	.
=62	=62	=62
2B-	1f	2dd]
2A	.	2cc
1G	1g	1b-
=63	=63	=63
0d	0f#	0a
*-	*-	*-
!!!CDT: 1525/^1526/-1594/2/2
!!!OCY: Italia
!!!AGN: Mass (Paraphrase)
!!!AST: renaissance, vocal
!!!ASW: Hymn
!!!PWK: Masses, Book 5
!!!RNB: Cadence finals: D
!!!YOR: Le Opere Complete, v. 15, p. 20
!!!YOO: Rome, Italy: Fratelli Scalera
!!!END: 1992//
!!!EED: John Miller
!!!YEC: Copyright 2000, John Miller
!!!YEN: United States of America
!!!YEM: Rights to all derivative electronic formats reserved.
!!!YEM: Refer to licensing agreement for further details.
!!!YEM: This file must be accompanied by the licensing agreement.
!!!YEM: A copy of the licensing agreement may be found at http://www.music-cog.ohio-state.edu/HumdrumDatabases/Palestrina/license.txt
!!!EMD: converted to Humdrum by Bret Aarden
